icons/circle/48/kreversi.svg

<svg viewBox="0 0 48 48" xmlns="http://www.w3.org/2000/svg">
 <defs>
  <linearGradient id="linearGradient3764" x1="1" x2="47" gradientTransform="matrix(0 -1 1 0 -1.5e-6 48)" gradientUnits="userSpaceOnUse">
   <stop style="stop-color:#e4e4e4" offset="0"/>
   <stop style="stop-color:#eee" offset="1"/>
  </linearGradient>
  <linearGradient id="linearGradient4735" x2="0" y1="39" y2="9" gradientUnits="userSpaceOnUse">
   <stop style="stop-color:#d04848" offset="0"/>
   <stop style="stop-color:#d25252" offset="1"/>
  </linearGradient>
  <linearGradient id="linearGradient4810" x2="0" y1="39" y2="9" gradientUnits="userSpaceOnUse">
   <stop style="stop-color:#726cac" offset="0"/>
   <stop style="stop-color:#7974b0" offset="1"/>
  </linearGradient>
  <radialGradient id="radialGradient4850" cx="24" cy="16.5" r="3.5" gradientUnits="userSpaceOnUse">
   <stop style="stop-color:#6461a5" offset="0"/>
   <stop style="stop-color:#5c579b" offset="1"/>
  </radialGradient>
  <radialGradient id="radialGradient4858" cx="24" cy="31.5" r="3.5" gradientUnits="userSpaceOnUse">
   <stop style="stop-color:#cd3939" offset="0"/>
   <stop style="stop-color:#c13131" offset="1"/>
  </radialGradient>
 </defs>
 <path d="m36.31 5c5.859 4.062 9.688 10.831 9.688 18.5 0 12.426-10.07 22.5-22.5 22.5-7.669 0-14.438-3.828-18.5-9.688 1.037 1.822 2.306 3.499 3.781 4.969 4.085 3.712 9.514 5.969 15.469 5.969 12.703 0 23-10.298 23-23 0-5.954-2.256-11.384-5.969-15.469-1.469-1.475-3.147-2.744-4.969-3.781zm4.969 3.781c3.854 4.113 6.219 9.637 6.219 15.719 0 12.703-10.297 23-23 23-6.081 0-11.606-2.364-15.719-6.219 4.16 4.144 9.883 6.719 16.219 6.719 12.703 0 23-10.298 23-23 0-6.335-2.575-12.06-6.719-16.219z" style="opacity:.05"/>
 <path d="m41.28 8.781c3.712 4.085 5.969 9.514 5.969 15.469 0 12.703-10.297 23-23 23-5.954 0-11.384-2.256-15.469-5.969 4.113 3.854 9.637 6.219 15.719 6.219 12.703 0 23-10.298 23-23 0-6.081-2.364-11.606-6.219-15.719z" style="opacity:.1"/>
 <path d="m31.25 2.375c8.615 3.154 14.75 11.417 14.75 21.13 0 12.426-10.07 22.5-22.5 22.5-9.708 0-17.971-6.135-21.12-14.75a23 23 0 0 0 44.875-7 23 23 0 0 0-16-21.875z" style="opacity:.2"/>
 <path d="m24 1c12.703 0 23 10.297 23 23s-10.297 23-23 23-23-10.297-23-23 10.297-23 23-23z" style="fill:url(#linearGradient3764)"/>
 <path d="m40.03 7.531c3.712 4.084 5.969 9.514 5.969 15.469 0 12.703-10.297 23-23 23-5.954 0-11.384-2.256-15.469-5.969 4.178 4.291 10.01 6.969 16.469 6.969 12.703 0 23-10.298 23-23 0-6.462-2.677-12.291-6.969-16.469z" style="opacity:.1"/>
 <circle cx="25" cy="25" r="15" style="fill-opacity:.098"/>
 <path d="m39 24c0 8.284-6.716 15-15 15s-12-12-12-15c0-4 6-15 12-15 8.284 0 15 6.716 15 15z" style="fill:url(#linearGradient4735)"/>
 <path d="m25 10a7.5 7.5 0 0 0-0.639 0.03c-7.985 0.34-14.361 6.901-14.361 14.97 0 3.897 1.496 7.435 3.934 10.1a15 15 0 0 0 6.728 3.509c-1.911-1.359-3.162-3.589-3.162-6.109 0-4.142 3.358-7.5 7.5-7.5a7.5 7.5 0 0 0 7.5-7.5 7.5 7.5 0 0 0-7.5-7.5z" style="fill-opacity:.098"/>
 <path d="m24 9a7.5 7.5 0 0 0-0.639 0.03c-7.985 0.34-14.361 6.901-14.361 14.97 0 8.03 6.307 14.559 14.23 14.961-3.779-0.384-6.73-3.581-6.73-7.461 0-4.142 3.358-7.5 7.5-7.5a7.5 7.5 0 0 0 7.5-7.5 7.5 7.5 0 0 0-7.5-7.5z" style="fill:url(#linearGradient4810)"/>
 <circle cx="24" cy="16.5" r="3.5" style="fill:url(#radialGradient4850)"/>
 <circle cx="24" cy="31.5" r="3.5" style="fill:url(#radialGradient4858)"/>
</svg>

<svg xmlns="http://www.w3.org/2000/svg" viewBox="0 0 48 48">
 <defs>
  <linearGradient id="linearGradient3764" x1="1" x2="47" gradientUnits="userSpaceOnUse" gradientTransform="matrix(0,-1,1,0,-1.5e-6,47.999998)">
   <stop style="stop-color:#e4e4e4;stop-opacity:1"/>
   <stop offset="1" style="stop-color:#eee;stop-opacity:1"/>
  </linearGradient>
  <linearGradient id="linearGradient4735" y1="39" x2="0" y2="9" gradientUnits="userSpaceOnUse">
   <stop style="stop-color:#d04848;stop-opacity:1"/>
   <stop offset="1" style="stop-color:#d25252;stop-opacity:1"/>
  </linearGradient>
  <linearGradient id="linearGradient4810" y1="39" x2="0" y2="9" gradientUnits="userSpaceOnUse">
   <stop style="stop-color:#726cac;stop-opacity:1"/>
   <stop offset="1" style="stop-color:#7974b0;stop-opacity:1"/>
  </linearGradient>
  <radialGradient id="radialGradient4850" cx="24" cy="16.5" r="3.5" gradientUnits="userSpaceOnUse">
   <stop style="stop-color:#6461a5;stop-opacity:1"/>
   <stop offset="1" style="stop-color:#5c579b;stop-opacity:1"/>
  </radialGradient>
  <radialGradient id="radialGradient4858" cx="24" cy="31.5" r="3.5" gradientUnits="userSpaceOnUse">
   <stop style="stop-color:#cd3939;stop-opacity:1"/>
   <stop offset="1" style="stop-color:#c13131;stop-opacity:1"/>
  </radialGradient>
 </defs>
 <g>
  <path d="m 36.31 5 c 5.859 4.062 9.688 10.831 9.688 18.5 c 0 12.426 -10.07 22.5 -22.5 22.5 c -7.669 0 -14.438 -3.828 -18.5 -9.688 c 1.037 1.822 2.306 3.499 3.781 4.969 c 4.085 3.712 9.514 5.969 15.469 5.969 c 12.703 0 23 -10.298 23 -23 c 0 -5.954 -2.256 -11.384 -5.969 -15.469 c -1.469 -1.475 -3.147 -2.744 -4.969 -3.781 z m 4.969 3.781 c 3.854 4.113 6.219 9.637 6.219 15.719 c 0 12.703 -10.297 23 -23 23 c -6.081 0 -11.606 -2.364 -15.719 -6.219 c 4.16 4.144 9.883 6.719 16.219 6.719 c 12.703 0 23 -10.298 23 -23 c 0 -6.335 -2.575 -12.06 -6.719 -16.219 z" style="opacity:0.05"/>
  <path d="m 41.28 8.781 c 3.712 4.085 5.969 9.514 5.969 15.469 c 0 12.703 -10.297 23 -23 23 c -5.954 0 -11.384 -2.256 -15.469 -5.969 c 4.113 3.854 9.637 6.219 15.719 6.219 c 12.703 0 23 -10.298 23 -23 c 0 -6.081 -2.364 -11.606 -6.219 -15.719 z" style="opacity:0.1"/>
  <path d="m 31.25 2.375 c 8.615 3.154 14.75 11.417 14.75 21.13 c 0 12.426 -10.07 22.5 -22.5 22.5 c -9.708 0 -17.971 -6.135 -21.12 -14.75 a 23 23 0 0 0 44.875 -7 a 23 23 0 0 0 -16 -21.875 z" style="opacity:0.2"/>
 </g>
 <g>
  <path d="m 24 1 c 12.703 0 23 10.297 23 23 c 0 12.703 -10.297 23 -23 23 -12.703 0 -23 -10.297 -23 -23 0 -12.703 10.297 -23 23 -23 z" style="fill:url(#linearGradient3764);fill-opacity:1"/>
 </g>
 <g>
  <path d="m 40.03 7.531 c 3.712 4.084 5.969 9.514 5.969 15.469 0 12.703 -10.297 23 -23 23 c -5.954 0 -11.384 -2.256 -15.469 -5.969 4.178 4.291 10.01 6.969 16.469 6.969 c 12.703 0 23 -10.298 23 -23 0 -6.462 -2.677 -12.291 -6.969 -16.469 z" style="opacity:0.1"/>
 </g>
 <g>
  <circle cx="25" cy="25" r="15" style="fill:#000;opacity:1;fill-opacity:0.098;stroke:none;fill-rule:nonzero"/>
  <path d="m 39 24 c 0 8.284 -6.716 15 -15 15 -8.284 0 -12 -12 -12 -15 0 -4 6 -15 12 -15 c 8.284 0 15 6.716 15 15 z" style="fill:url(#linearGradient4735);opacity:1;fill-opacity:1;stroke:none;fill-rule:nonzero"/>
  <path d="M 25 10 A 7.5 7.5 0 0 0 24.361 10.03 C 16.376 10.37 10 16.931 10 25 C 10 28.897 11.496 32.435 13.934 35.1 A 15 15 0 0 0 20.662 38.609 C 18.751 37.25 17.5 35.02 17.5 32.5 C 17.5 28.358 20.858 25 25 25 A 7.5 7.5 0 0 0 32.5 17.5 A 7.5 7.5 0 0 0 25 10 z" style="fill:#000;opacity:1;fill-opacity:0.098;stroke:none;fill-rule:nonzero"/>
  <path d="M 24 9 A 7.5 7.5 0 0 0 23.361 9.03 C 15.376 9.37 9 15.931 9 24 C 9 32.03 15.307 38.559 23.23 38.961 C 19.451 38.577 16.5 35.38 16.5 31.5 C 16.5 27.358 19.858 24 24 24 A 7.5 7.5 0 0 0 31.5 16.5 A 7.5 7.5 0 0 0 24 9 z" style="fill:url(#linearGradient4810);opacity:1;fill-opacity:1;stroke:none;fill-rule:nonzero"/>
  <circle r="3.5" cy="16.5" cx="24" style="fill:url(#radialGradient4850);opacity:1;fill-opacity:1;stroke:none;fill-rule:nonzero"/>
  <circle cx="24" cy="31.5" r="3.5" style="fill:url(#radialGradient4858);opacity:1;fill-opacity:1;stroke:none;fill-rule:nonzero"/>
 </g>
</svg>
